X:122
T:Johnnie Armstrong
T:neither of these so pretty as our own I think
Z:Jack Campin - http://www.campin.me.uk
S:Blaikie MS (NLS MS.1578) p36, Blaikie #116
M:C
L:1/8
V:1 midi program 1 74
V:2 midi program 1 46 bass middle = d transpose -24
Q:1/4=86
K:C
[V:1] G|c2ed  e2GG   |E2DE  G2zG   |c2ed e2 Gz/G/|A2Bc d2zG|
[V:2] z|c2c'2 c2c'2  |c2c'2 g2G2   |c2g2 c'2e2   |f2dc g2z2|
%
[V:1]   cced  deGz/G/|E2DE  G3 z/B/|d3 c B2 AG   |G2AB c3 |]
[V:2]   C2c2  C2c2   |C2c2  g2g2   |b2a2 g2 f2   |g2G2 c3 |]
W:Transcription (c) Jack Campin 2009, no mirroring or republication without permission

